X:4120
T:Devil's Dream,The. WM.104
M:2/4
L:1/8
Q:260
S:Wm.Mittell's MS,New Romney,Kent,1799
R:Reel
O:England
A:Kent
N:
D:
H:
Z:vmp.Chris Partington
W:
K:D
Adcd|Adcd|Adcd|BAGF|GBEB|GBEB|GBEB|BAGF|!
Adcd|Adcd|Adcd|BAGF|GABc|dBAG|A,2C2|D3z:|!
|:FADA|FADA|FADA|BAGF|GBDB|GBDB|GBDB|AFED|!
FADA|FADA|FADA|GFED|BcdB|AFED|A,2C2|D3z:|]
W:Note D in bars 5,6,7 of B strain as written. |]
